X:573
T: DER ZAUN DER WIRD GEFLOCHTEN
N: E1878
O: Europa, Mitteleuropa, Deutschland, Sachsen, Leipzig; Dresden
R: Kinder - Lied, Tanz, Reigen
M: 2/4
L: 1/16
K: G
D2 | G2A2B2e2 | d4B2
d2 | c2c2A2c2 | B2BAG2
D2 | G2A2B2e2 | d4B2
d2 | c2c2A2d2 | G4z2

@@@ Tune index: 5257
